X: 4092
T: SANNY SPIERS
C: A. M. Volti
R: Strathspey.
%R: strathspey
B: James Kerr "Merry Melodies" v.4 p.12 #92
Z: 2016 John Chambers <jc:trillian.mit.edu>
M: C
L: 1/8
K: G
uD2 |:\
G<G G>B d>BG>B | d>gf>g e>dc>B |\
A<A A>B c>BA>G |[1 F>AE>A F>DE>F :|[2 F>DE>F G2B2 |]
|:\
e<e ^d>e B>eG>B | E>e^d>e g>eB>G |\
[1 d<d ^c>d A>dF>A | D>d^c>d f>dA>F :|\
[2 g>ab>a (3gag (3fgf | e>gf>e d>cB>A |]

%%sep 1 1 500
%%sep 1 1 500

